packages/core/src/svgs/skl.svg

<svg width="24" height="24" viewBox="0 0 24 24" fill="none" xmlns="http://www.w3.org/2000/svg">
<g clip-path="url(#clip0_31_18842)">
<path d="M0 0H24V24H0V0Z" fill="url(#paint0_linear_31_18842)"/>
<path d="M6 6H7.71429V18H6V6Z" fill="white"/>
<path d="M16.7143 5.57129V7.28557H6V5.57129H16.7143ZM17.1429 16.7141V18.4284H6V16.7141H17.1429ZM16.7143 8.14272C18.4286 8.14272 19.5 9.42843 19.5 10.2856H18C18 10.0713 17.5157 9.42843 16.7143 9.42843C15.75 9.42843 15.4286 9.857 15.4286 10.2856C15.4286 10.7141 15.6429 10.9284 16.7143 11.1427C17.7043 11.3399 19.7143 11.7856 19.7143 13.4999C19.7143 14.8713 18.2143 15.857 16.7143 15.857C15.5143 15.857 13.7143 15.2141 13.7143 13.2856H15C15 13.9284 15.8571 14.5713 16.7143 14.5713C17.2286 14.5713 18.2143 14.357 18.2143 13.4999C18.2143 12.6427 17.2286 12.5141 16.7143 12.4284C15.4286 12.2141 13.9286 11.7856 13.9286 10.2856C13.9286 9.21415 15 8.14272 16.7143 8.14272Z" fill="white"/>
</g>
<defs>
<linearGradient id="paint0_linear_31_18842" x1="4.46571" y1="4.16143" x2="29.2071" y2="32.58" gradientUnits="userSpaceOnUse">
<stop stop-color="#1A1E21"/>
<stop offset="1" stop-color="#06060A"/>
</linearGradient>
<clipPath id="clip0_31_18842">
<rect width="24" height="24" fill="white"/>
</clipPath>
</defs>
</svg>

<svg xmlns="http://www.w3.org/2000/svg" width="24" height="24" fill="none" viewBox="0 0 24 24"><g clip-path="url(#a)"><path fill="url(#b)" d="M0 0h24v24H0z"/><path fill="#fff" d="M6 6h1.714v12H6z"/><path fill="#fff" d="M16.714 5.571v1.715H6V5.57zm.429 11.143v1.714H6v-1.714zm-.429-8.571c1.715 0 2.786 1.285 2.786 2.143H18c0-.215-.484-.858-1.286-.858-.964 0-1.285.429-1.285.858 0 .428.214.642 1.285.857.99.197 3 .643 3 2.357 0 1.371-1.5 2.357-3 2.357-1.2 0-3-.643-3-2.571H15c0 .642.857 1.285 1.714 1.285.515 0 1.5-.214 1.5-1.071s-.985-.986-1.5-1.072c-1.285-.214-2.785-.642-2.785-2.142 0-1.072 1.071-2.143 2.785-2.143"/></g><defs><linearGradient id="b" x1="4.466" x2="29.207" y1="4.161" y2="32.58" gradientUnits="userSpaceOnUse"><stop stop-color="#1A1E21"/><stop offset="1" stop-color="#06060A"/></linearGradient><clipPath id="a"><path fill="#fff" d="M0 0h24v24H0z"/></clipPath></defs></svg>
